X:1
T:The Lord Is Our Trust
T:Leonard Daughterty
T:The Lord Is Our Trust
T:Public Domain
T:Public Domain
T:Public Domain
C:Leonard Daughterty
Z:Public Domain
%%score ( 1 2 ) ( 3 4 )
L:1/8
M:4/4
K:G
V:1 treble 
V:2 treble 
V:3 bass 
V:4 bass 
V:1
 [B,D]2 | [DB]3 [Ec] [DB]>[CA] [B,G]>[CA] x | [DB]6 [=FA]2 | [EG]3 [^DF] [EG]>[DF] [EG]>[CE] x | %4
w: 1.~I|know not where the path may|lead, How|dark the way that I must|
w: 2.~I|may not have strength of my|own, To|do the task be- fore me|
w: 3.~But|this I know, what- e’er the|task, Or|foe that seeks my soul’s a-|
w: 4.~I|may not know what waits the|day, Nor|part the veil that hangs be-|
w: 5.~But|this I know, if with my|best I|played the part I had to|
 [B,D]6 [B,D]2 | [DB]3 [Ec] [DB]>[CA] [B,G]>[CA] x | [DB]6 [B,G]2 | %7
w: tread; My|feet may walk on fra- grant|mead, Or|
w: laid; Heart|shrink to make the fight a-|lone A-|
w: larm, I|need not fear; I need but|ask The|
w: tween; I|may not glimpse one gold- en|ray Up-|
w: play, ’Tis|safe to leave to Him the|rest, For|
 [CA]3 [B,^G] [CA]>[Ec] [DB]>[CA] x | [B,G]4- [B,G]3/2 ||"^Refrain" B<B c/ | (G2 G2 d>)d e>d | %11
w: midst deep bogs that ’round them|spread. *|||
w: gainst the foe I see ar-|rayed. *|||
w: help- ful strength of His strong|arm. *|But this I|know, * * what- e’er be-|
w: on the fur- ther dis- tant|scene. *|||
w: His own time, in His own|way. *|||
 (F2 F2 [Fc]>)A A>B | (A2 A2 [Ac]>)[ce] [Bd]>[Ac] | (G2 G2 [GB]>)B B>c | %14
w: |||
w: |||
w: not * * fear nor walk|lone; * * I still may|One * * at my *|
w: |||
w: |||
 (G2 G2 [Gd]>)[GB] [Gc]>[Ge] | (G2 FF [Gd]>)[B,D] [B,G]>[CA] | [DB]4- [DB]>[EB] [DB]>[CA] | %17
w: |||
w: |||
w: And * * feel my hand|in * * * His own. *||
w: |||
w: |||
 (B,>B, C>C [B,G]2) |] %18
w: |
w: |
w: |
w: |
w: |
V:2
 x2 | x9 | x8 | x9 | x8 | x9 | x8 | x9 | x11/2 || x5/2 | d4- G2 G2 | c4- x4 | c4- x4 | B4- x4 | %14
w: ||||||||||||||
w: ||||||||||||||
w: ||||||||||tide, I need|a-|have|side,|
 d4- x4 | d4- x4 | x8 | G4- x2 |] %18
w: ||||
w: ||||
w: with-||||
V:3
 B,2 | G,,2 z E D>C B,>C x | (G,,2 D,2 G,2) [B,,=F]2 | [C,G,]2 z ^D E>D E>C x | %4
w: ~|~ ~ ~ ~ ~ ~|~ * * ~|~ ~ ~ ~ ~ ~|
 (G,,2 D,2 G,2) B,2 | G,,2 z E D>C B,>C x | (G,,2 D,2 G,2) [G,,B,]2 | D,2 z B, C>E D>C x | %8
w: ~ * * ~|~ ~ ~ ~ ~ ~|~ * * This|know, what- e’er be- tide, need|
 [G,,G,B,]4- [G,,G,B,]3/2 || z/ z2 | [G,B,]2 [G,B,]2 [G,B,]2 (C>B,) | %11
w: walk *||a- lone, still may *|
 [D,A,]2 [D,A,]2 [D,A,]3/2 z/ z2 | [D,D]2 [D,D]2 [D,D]2 (E,>F,) | [G,D]2 [G,D]2 [G,D]3/2 z/ z2 | %14
w: One at my|side (at my side) *|feel my hand|
 [G,B,]2 [G,B,]2 [G,B,]>[G,D] [G,E]>[G,C] | [G,B,]2 [D,A,][D,A,] [G,B,]3/2 z/ z2 | %16
w: ~ ~ ~ ~ with- in|His~own. * * *|
 z3/2 [G,,G,]/ [B,,G,]>[D,G,] G,>[C,G,] [D,G,]>[D,F,] | G,>D, E,>_E, [G,,D,]2 |] %18
w: ||
V:4
 x2 | D3 G,2 G,,2 G,2 | D6 x2 | E3 ([C,G,]2 [C,G,]2) [C,G,]2 | B,6 x2 | D3 (G,2 G,,2) G,2 | D6 x2 | %7
w: |~ ~ ~ ~|~|~ ~ * ~|~|~ ~ * ~|I|
 C3 (D,,2 [D,,D,]2) [D,,D,]2 | x11/2 || x5/2 | x6 G,2 | x8 | x6 D2 | x8 | x8 | x8 | x4 G,3/2 x5/2 | %17
w: not fear * nor|||have||and|||||
 G,,4- x2 |] %18
w: |

